backend/papyrus-web-graphics/src/main/resources/icons-override/full/obj16/Usage.svg

<?xml version="1.0" encoding="UTF-8" standalone="no"?>
<svg
   xmlns:dc="http://purl.org/dc/elements/1.1/"
   xmlns:cc="http://creativecommons.org/ns#"
   xmlns:rdf="http://www.w3.org/1999/02/22-rdf-syntax-ns#"
   xmlns:svg="http://www.w3.org/2000/svg"
   xmlns="http://www.w3.org/2000/svg"
   xmlns:sodipodi="http://sodipodi.sourceforge.net/DTD/sodipodi-0.dtd"
   xmlns:inkscape="http://www.inkscape.org/namespaces/inkscape"
   width="16"
   height="18"
   viewBox="0 0 4.2333332 4.7624999"
   version="1.1"
   id="svg8"
   inkscape:version="1.0.1 (3bc2e813f5, 2020-09-07)"
   sodipodi:docname="Usage.svg">
  
  <sodipodi:namedview
     id="base"
     pagecolor="#ffffff"
     bordercolor="#666666"
     borderopacity="1.0"
     inkscape:pageopacity="0"
     inkscape:pageshadow="2"
     inkscape:zoom="22.627417"
     inkscape:cx="32.430773"
     inkscape:cy="10.128543"
     inkscape:document-units="mm"
     inkscape:current-layer="g882"
     inkscape:document-rotation="0"
     showgrid="false"
     inkscape:pagecheckerboard="false"
     inkscape:window-width="3840"
     inkscape:window-height="1995"
     inkscape:window-x="1"
     inkscape:window-y="2160"
     inkscape:window-maximized="1"
     units="px" />
  
  <g>
    <g
       id="g882">
      <g
         id="g837"
         transform="matrix(0.91840843,0,0,0.91840843,-0.38080701,-0.03179049)">
        <path
           style="fill:none;stroke:#4d81b4;stroke-width:0.315328;stroke-linecap:round;stroke-linejoin:miter;stroke-miterlimit:3.9;stroke-dasharray:0.94598, 0.94598;stroke-dashoffset:0.472992;stroke-opacity:1"
           d="M 4.5202339,0.88080177 0.76359067,4.5092248"
           id="path891"
           sodipodi:nodetypes="cc" />
        <path
           style="fill:none;stroke:#4d81b4;stroke-width:0.315328;stroke-linecap:round;stroke-linejoin:round;stroke-miterlimit:4;stroke-dasharray:none;stroke-opacity:1"
           d="M 4.6496405,0.74560609 4.6751087,1.5690854"
           id="path891-3-6-7"
           sodipodi:nodetypes="cc" />
        <path
           style="fill:none;stroke:#4d81b4;stroke-width:0.315328;stroke-linecap:round;stroke-linejoin:round;stroke-miterlimit:4;stroke-dasharray:none;stroke-opacity:1"
           d="M 4.6496405,0.74560609 3.8261611,0.77107467"
           id="path891-3-6-7-3"
           sodipodi:nodetypes="cc" />
      </g>
      <path
         d="M 2.0991586,4.4421282 1.3739738,4.1267991 V 3.9521775 L 2.0991586,3.6382915 V 3.843941 L 1.5933331,4.0373236 2.0991586,4.2379219 Z"
         style="font-style:normal;font-variant:normal;font-weight:bold;font-stretch:normal;font-size:2.11667px;line-height:1.25;font-family:sans-serif;-inkscape-font-specification:'sans-serif Bold';letter-spacing:0px;word-spacing:0px;fill:#4d81b4;fill-opacity:1;stroke:none;stroke-width:0.184723;stroke-opacity:1"
         id="path854" />
      <path
         d="M 3.304192,4.4428498 V 4.2386436 L 3.8107389,4.0394883 3.304192,3.8424978 V 3.6397347 l 0.7259063,0.3138859 v 0.1731785 z"
         style="font-style:normal;font-variant:normal;font-weight:bold;font-stretch:normal;font-size:2.11667px;line-height:1.25;font-family:sans-serif;-inkscape-font-specification:'sans-serif Bold';letter-spacing:0px;word-spacing:0px;fill:#4d81b4;fill-opacity:1;stroke:none;stroke-width:0.184723;stroke-opacity:1"
         id="path858" />
      <text
         xml:space="preserve"
         style="font-style:normal;font-weight:normal;font-size:1.61664px;line-height:1.25;font-family:sans-serif;letter-spacing:0px;word-spacing:0px;fill:#4d81b4;fill-opacity:1;stroke:none;stroke-width:0.0404161"
         x="2.1533854"
         y="4.5842528"
         id="text849"><tspan
           sodipodi:role="line"
           id="tspan847"
           x="2.1533854"
           y="4.5842528"
           style="font-style:normal;font-variant:normal;font-weight:bold;font-stretch:normal;font-family:Arial;-inkscape-font-specification:'Arial Bold';fill:#4d81b4;fill-opacity:1;stroke-width:0.0404161">U</tspan></text>
    </g>
  </g>
</svg>

<svg xmlns="http://www.w3.org/2000/svg" width="16" height="16">
    <path d="M4.52.88.764 4.51" style="fill:none;stroke:#4d81b4;stroke-width:.315328;stroke-linecap:round;stroke-linejoin:miter;stroke-miterlimit:3.9;stroke-dasharray:.94598,.94598;stroke-dashoffset:.472992;stroke-opacity:1" transform="translate(-1.328 -1.193)scale(3.23502)"/>
    <path d="m4.65.746.025.823M4.65.746 3.826.77" style="fill:none;stroke:#4d81b4;stroke-width:.315328;stroke-linecap:round;stroke-linejoin:round;stroke-miterlimit:4;stroke-dasharray:none;stroke-opacity:1" transform="translate(-1.328 -1.193)scale(3.23502)"/>
    <path d="m2.1 4.442-.726-.315v-.175l.725-.314v.206l-.506.193.506.2Zm1.204.001v-.204l.507-.2-.507-.197V3.64l.726.314v.173z" style="font-style:normal;font-variant:normal;font-weight:700;font-stretch:normal;font-size:2.11667px;line-height:1.25;font-family:sans-serif;-inkscape-font-specification:&quot;sans-serif Bold&quot;;letter-spacing:0;word-spacing:0;fill:#4d81b4;fill-opacity:1;stroke:none;stroke-width:.184723;stroke-opacity:1" transform="translate(.013 -1.081)scale(3.52242)"/>
    <text xml:space="preserve" x="2.153" y="4.584" style="font-style:normal;font-weight:400;font-size:1.61664px;line-height:1.25;font-family:sans-serif;letter-spacing:0;word-spacing:0;fill:#4d81b4;fill-opacity:1;stroke:none;stroke-width:.0404161" transform="translate(.013 -1.081)scale(3.52242)"><tspan x="2.153" y="4.584" style="font-style:normal;font-variant:normal;font-weight:700;font-stretch:normal;font-family:Arial;-inkscape-font-specification:&quot;Arial Bold&quot;;fill:#4d81b4;fill-opacity:1;stroke-width:.0404161">U</tspan></text>
</svg>
